Public/deploy/images/question.svg

<svg data-name="Layer 1" xmlns="http://www.w3.org/2000/svg" viewBox="0 0 50 50"><path d="M25 1a24 24 0 1024 24A24 24 0 0025 1zm2.14 37a3.74 3.74 0 01-2.57.85 3.84 3.84 0 01-2.64-.85 3.08 3.08 0 01-.93-2.43 3.11 3.11 0 01.91-2.41 3.77 3.77 0 012.68-.85 3.64 3.64 0 012.6.85 3.16 3.16 0 01.91 2.41 3.07 3.07 0 01-.96 2.43zm5.54-15a9.83 9.83 0 01-3.07 2.85 11.61 11.61 0 00-2.23 1.69 1.89 1.89 0 00-.45 1.26v.87h-5.22v-1.51a5.44 5.44 0 01.68-2.81 7.14 7.14 0 012.41-2.24 9.16 9.16 0 002-1.56 2.36 2.36 0 00.61-1.6 1.29 1.29 0 00-.65-1.13 3 3 0 00-1.68-.42 13.28 13.28 0 00-6 1.82l-2.39-4.62a17.62 17.62 0 018.84-2.42 9.52 9.52 0 015.95 1.67 5.42 5.42 0 012.16 4.54 6.47 6.47 0 01-.96 3.61z"/></svg>

<svg id="Layer_1" data-name="Layer 1" xmlns="http://www.w3.org/2000/svg" viewBox="0 0 50 50">
  <path d="M25,1A24,24,0,1,0,49,25,24,24,0,0,0,25,1Zm2.14,37a3.74,3.74,0,0,1-2.57.85A3.84,3.84,0,0,1,21.93,38,3.08,3.08,0,0,1,21,35.57a3.11,3.11,0,0,1,.91-2.41,3.77,3.77,0,0,1,2.68-.85,3.64,3.64,0,0,1,2.6.85,3.16,3.16,0,0,1,.91,2.41A3.07,3.07,0,0,1,27.14,38Zm5.54-15a9.83,9.83,0,0,1-3.07,2.85,11.61,11.61,0,0,0-2.23,1.69,1.89,1.89,0,0,0-.45,1.26v.87H21.71V28.16a5.44,5.44,0,0,1,.68-2.81,7.14,7.14,0,0,1,2.41-2.24,9.16,9.16,0,0,0,2-1.56,2.36,2.36,0,0,0,.61-1.6,1.29,1.29,0,0,0-.65-1.13,3,3,0,0,0-1.68-.42,13.28,13.28,0,0,0-6,1.82L16.69,15.6a17.62,17.62,0,0,1,8.84-2.42,9.52,9.52,0,0,1,5.95,1.67,5.42,5.42,0,0,1,2.16,4.54A6.47,6.47,0,0,1,32.68,23Z"/>
</svg>
